X: 10123
T: MORPETH'S MARCH
C:
%R: march
B: Elias Howe "The Musician's Companion" Part 1 1842 p.12 #3
S: http://imslp.org/wiki/The_Musician's_Companion_(Howe,_Elias)
Z: 2015 John Chambers <jc:trillian.mit.edu>
M: 2/4
L: 1/8
K: D
% - - - - - - - - - - - - - - - - - - - - - - - - -
|:\
affa | affa | gggg | f3f |\
fddf | fdde/f/ | gedc | d3 :: e |\
dccc | ddde/f/ | gggg | f3e |\
dccc | ddde/f/ | gedc | d3 :|
% - - - - - - - - - - - - - - - - - - - - - - - - -


